svg/blobs-icons/no-decorations/pill.svg

<svg xmlns="http://www.w3.org/2000/svg" xmlns:xlink="http://www.w3.org/1999/xlink" preserveAspectRatio="xMidYMid" width="216" height="216" viewBox="0 0 216 216"><defs><style>.cls-3{fill:#fbb713}.cls-4{fill:#ededed}.cls-5{fill:#ff3a2f}.cls-6{fill:#000;opacity:.35}</style></defs><g id="group-156svg"><path d="M111.525 17.815c23.794-23.791 62.359-23.791 86.144.0 23.794 23.785 23.794 62.349.0 86.142l-93.712 93.709c-23.785 23.784-62.359 23.784-86.144.0-23.785-23.793-23.785-62.357.0-86.141l93.712-93.71z" id="path-1" class="cls-3" fill-rule="evenodd"/><path d="M184.419 34.659C183.499 34.659 182.579 34.308 181.879 33.605 173.347 25.071 162.005 20.371 149.94 20.371s-23.409 4.702-31.945 13.234C116.592 35.009 114.319 35.009 112.916 33.605c-1.404-1.40199999999999-1.404-3.676.0-5.08C122.807 18.635 135.955 13.188 149.94 13.188c13.986.0 27.132 5.447 37.018 15.337 1.404 1.404 1.404 3.68.0 5.08C186.257 34.308 185.338 34.659 184.419 34.659z" id="path-2" class="cls-4" fill-rule="evenodd"/><path d="M146.145 155.479s-42.188 42.187-42.188 42.187c-23.785 23.784-62.359 23.784-86.144.0-23.785-23.793-23.785-62.357.0-86.141L52.084 77.256S65.575 65.568 65.575 65.568s84.341 84.338 84.341 84.338S146.145 155.479 146.145 155.479z" id="path-3" class="cls-5" fill-rule="evenodd"/><path d="M210.58 36.947C212.051 54.218 206.204 71.997 192.983 85.216L99.271 178.925c-23.785 23.783-62.359 23.783-86.143.0C7.463 173.257 3.19 166.738.223 159.794c1.177 13.812 7.022 27.301 17.59 37.872 23.785 23.784 62.359 23.784 86.144.0l93.712-93.709c18.126-18.124 22.401-44.805 12.911-67.01z" id="path-4" class="cls-6" fill-rule="evenodd"/></g></svg>

<svg xmlns="http://www.w3.org/2000/svg" xmlns:xlink="http://www.w3.org/1999/xlink" preserveAspectRatio="xMidYMid" width="216" height="216" viewBox="0 0 216 216">
  <defs>
    <style>

      .cls-3 {
        fill: #fbb713;
      }

      .cls-4 {
        fill: #ededed;
      }

      .cls-5 {
        fill: #ff3a2f;
      }

      .cls-6 {
        fill: #000000;
        opacity: 0.35;
      }
    </style>
  </defs>
  <g id="group-156svg">
    <path d="M111.525,17.815 C135.319,-5.976 173.884,-5.976 197.669,17.815 C221.463,41.600 221.463,80.164 197.669,103.957 C197.669,103.957 103.957,197.666 103.957,197.666 C80.172,221.450 41.598,221.450 17.813,197.666 C-5.972,173.873 -5.972,135.309 17.813,111.525 C17.813,111.525 111.525,17.815 111.525,17.815 Z" id="path-1" class="cls-3" fill-rule="evenodd"/>
    <path d="M184.419,34.659 C183.499,34.659 182.579,34.308 181.879,33.605 C173.347,25.071 162.005,20.371 149.940,20.371 C137.875,20.371 126.531,25.073 117.995,33.605 C116.592,35.009 114.319,35.009 112.916,33.605 C111.512,32.203 111.512,29.929 112.916,28.525 C122.807,18.635 135.955,13.188 149.940,13.188 C163.926,13.188 177.072,18.635 186.958,28.525 C188.362,29.929 188.362,32.205 186.958,33.605 C186.257,34.308 185.338,34.659 184.419,34.659 Z" id="path-2" class="cls-4" fill-rule="evenodd"/>
    <path d="M146.145,155.479 C146.145,155.479 103.957,197.666 103.957,197.666 C80.172,221.450 41.598,221.450 17.813,197.666 C-5.972,173.873 -5.972,135.309 17.813,111.525 C17.813,111.525 52.084,77.256 52.084,77.256 C52.084,77.256 65.575,65.568 65.575,65.568 C65.575,65.568 149.916,149.906 149.916,149.906 C149.916,149.906 146.145,155.479 146.145,155.479 Z" id="path-3" class="cls-5" fill-rule="evenodd"/>
    <path d="M210.580,36.947 C212.051,54.218 206.204,71.997 192.983,85.216 C192.983,85.216 99.271,178.925 99.271,178.925 C75.486,202.708 36.912,202.708 13.128,178.925 C7.463,173.257 3.190,166.738 0.223,159.794 C1.400,173.606 7.245,187.095 17.813,197.666 C41.598,221.450 80.172,221.450 103.957,197.666 C103.957,197.666 197.669,103.957 197.669,103.957 C215.795,85.833 220.070,59.152 210.580,36.947 Z" id="path-4" class="cls-6" fill-rule="evenodd"/>
  </g>
</svg>
